; generated by Slic3r 1.2.9 on 2015-08-23 at 12:16:32

; external perimeters extrusion width = 0.40mm
; perimeters extrusion width = 0.40mm
; infill extrusion width = 0.60mm
; solid infill extrusion width = 0.40mm
; top infill extrusion width = 0.40mm

M107
M104 S240 ; set temperature
G28 ; home all axes
G1 Z5 F5000 ; lift nozzle

M109 S240 ; wait for temperature to be reached
G21 ; set units to millimeters
G90 ; use absolute coordinates
M82 ; use absolute distances for extrusion
G92 E0
G1 Z2.950 F36000.000
G1 E-2.00000 F2400.00000
G92 E0
G1 X69.807 Y69.278 F36000.000
G1 E2.00000 F2400.00000
G1 X71.425 Y68.440 E2.07216 F1080.000
G1 X72.500 Y68.300 E2.11509
G1 X127.500 Y68.300 E4.29344
G1 X129.279 Y68.696 E4.36561
G1 X130.722 Y69.807 E4.43777 F1080.000
G1 X131.560 Y71.425 E4.50993
G1 X131.700 Y72.500 E4.55286
G1 X131.700 Y127.500 E6.73121
G1 X131.304 Y129.279 E6.80337
G1 X130.193 Y130.722 E6.87554
G1 X128.575 Y131.560 E6.94770
G1 X127.500 Y131.700 E6.99063
G1 X72.500 Y131.700 E9.16898
G1 X70.721 Y131.304 E9.24114
G1 X69.278 Y130.193 E9.31330
G1 X68.440 Y128.575 E9.38547
G1 X68.300 Y127.500 E9.42839
G1 X68.300 Y72.500 E11.60675
G1 X68.696 Y70.721 E11.67891
G1 X69.770 Y69.325 E11.74869
G1 X70.405 Y69.892 F36000.000
G1 X70.585 Y69.691 E11.75941 F1080.000
G1 X72.500 Y69.100 E11.83877
G1 X127.500 Y69.100 E14.01712
G1 X129.089 Y69.494 E14.08195
G1 X130.309 Y70.585 E14.14679 F1080.000
G1 X130.900 Y72.500 E14.22614
G1 X130.900 Y127.500 E16.40450
G1 X130.506 Y129.089 E16.46933
G1 X129.415 Y130.309 E16.53417
G1 X127.500 Y130.900 E16.61352
G1 X72.500 Y130.900 E18.79187
G1 X70.911 Y130.506 E18.85671
G1 X69.691 Y129.415 E18.92154
G1 X69.100 Y127.500 E19.00090
G1 X69.100 Y72.500 E21.17925
G1 X69.494 Y70.911 E21.24408
G1 X70.365 Y69.937 E21.29582
G1 X70.924 Y70.554 F36000.000
G1 X71.351 Y70.168 E21.31863 F1080.000
G1 X72.500 Y69.900 E21.36536
G1 X127.500 Y69.900 E23.54371
G1 X128.873 Y70.293 E23.60028
G1 X129.832 Y71.351 E23.65684 F1080.000
G1 X130.100 Y72.500 E23.70357
G1 X130.100 Y127.500 E25.88192
G1 X129.707 Y128.873 E25.93849
G1 X128.649 Y129.832 E25.99505
G1 X127.500 Y130.100 E26.04178
G1 X72.500 Y130.100 E28.22013
G1 X71.127 Y129.707 E28.27670
G1 X70.168 Y128.649 E28.33327
G1 X69.900 Y127.500 E28.37999
G1 X69.900 Y72.500 E30.55834
G1 X70.293 Y71.127 E30.61491
G1 X70.880 Y70.595 E30.64629
G1 X71.228 Y71.315 F36000.000
G1 X72.500 Y70.700 E30.70224 F1080.000
G1 X127.500 Y70.700 E32.88060
G1 X128.617 Y71.089 E32.92746
G1 X129.300 Y72.500 E32.98954 F1080.000
G1 X129.300 Y127.500 E35.16789
G1 X128.911 Y128.617 E35.21475
G1 X127.500 Y129.300 E35.27683
G1 X72.500 Y129.300 E37.45518
G1 X71.383 Y128.911 E37.50204
G1 X70.700 Y127.500 E37.56412
G1 X70.700 Y72.500 E39.74248
G1 X71.089 Y71.383 E39.78934
G1 X71.174 Y71.341 E39.79309
G1 E37.79309 F2400.00000
G92 E0
G1 X120.642 Y120.556 F36000.000
G1 E2.00000 F2400.00000
G1 X121.019 Y120.256 E2.01910 F720.000
G1 X121.443 Y120.027 E2.03819
G1 X121.902 Y119.878 E2.05728
G1 X122.341 Y119.819 E2.07486 F720.000
G1 X122.858 Y119.834 E2.09533
G1 X123.331 Y119.942 E2.11455
G1 X123.774 Y120.132 E2.13365
G1 X124.177 Y120.397 E2.15274
G1 X124.525 Y120.731 E2.17184
G1 X124.809 Y121.121 E2.19093
G1 X125.018 Y121.555 E2.21003
G1 X125.146 Y122.020 E2.22912
G1 X125.190 Y122.503 E2.24834
G1 X125.136 Y123.017 E2.26882
G1 X125.018 Y123.445 E2.28639
G1 X124.809 Y123.879 E2.30548
G1 X124.525 Y124.269 E2.32458
G1 X124.177 Y124.603 E2.34367
G1 X123.774 Y124.868 E2.36277
G1 X123.331 Y125.058 E2.38187
G1 X122.861 Y125.165 E2.40096
G1 X122.379 Y125.187 E2.42005
G1 X121.902 Y125.122 E2.43915
G1 X121.443 Y124.973 E2.45825
G1 X121.019 Y124.744 E2.47734
G1 X120.672 Y124.468 E2.49491
G1 X120.326 Y124.083 E2.51539
G1 X120.077 Y123.667 E2.53458
G1 X119.909 Y123.222 E2.55343
G1 X119.822 Y122.741 E2.57280
G1 X119.822 Y122.259 E2.59190
G1 X119.908 Y121.785 E2.61099
G1 X120.077 Y121.333 E2.63009
G1 X120.324 Y120.919 E2.64918
G1 X120.602 Y120.601 E2.66590
G1 X120.558 Y120.165 F36000.000
G1 E0.66590 F2400.00000
G92 E0
G1 X126.263 Y125.395 F36000.000
G1 E2.00000 F2400.00000
G1 X126.263 Y126.263 E2.03437 F720.000
G1 X123.523 Y126.263 E2.14286
G1 X123.445 Y125.879 E2.15837
G1 X124.155 Y125.575 E2.18896
G1 X124.677 Y125.230 E2.21376
G1 X125.130 Y124.798 E2.23856
G1 X125.498 Y124.291 E2.26336
G1 X125.770 Y123.727 E2.28815
G1 X125.847 Y123.447 E2.29968
G1 X126.263 Y123.503 E2.31629
G1 X126.263 Y125.335 E2.38884 F720.000
G1 X126.263 Y74.127 F36000.000
G1 X126.263 Y76.497 E2.48271 F720.000
G1 X125.847 Y76.553 E2.49932 F720.000
G1 X125.770 Y76.273 E2.51085
G1 X125.498 Y75.709 E2.53564
G1 X125.130 Y75.202 E2.56044
G1 X124.677 Y74.770 E2.58524
G1 X124.155 Y74.425 E2.61004
G1 X123.445 Y74.121 E2.64063
G1 X123.523 Y73.737 E2.65614
G1 X126.263 Y73.737 E2.76463
G1 X126.263 Y74.067 E2.77769
G1 X124.525 Y75.731 F36000.000
G1 X124.809 Y76.121 E2.79678 F720.000
G1 X125.018 Y76.555 E2.81588
G1 X125.146 Y77.020 E2.83497
G1 X125.189 Y77.500 E2.85407
G1 X125.146 Y77.983 E2.87329
G1 X125.001 Y78.480 E2.89376
G1 X124.809 Y78.879 E2.91133
G1 X124.525 Y79.269 E2.93043
G1 X124.177 Y79.603 E2.94952
G1 X123.774 Y79.868 E2.96862
G1 X123.331 Y80.058 E2.98772
G1 X122.861 Y80.165 E3.00681
G1 X122.379 Y80.187 E3.02590
G1 X121.902 Y80.122 E3.04500
G1 X121.443 Y79.973 E3.06410
G1 X121.019 Y79.744 E3.08319
G1 X120.642 Y79.444 E3.10229
G1 X120.324 Y79.081 E3.12138
G1 X120.077 Y78.667 E3.14048
G1 X119.908 Y78.215 E3.15957
G1 X119.822 Y77.741 E3.17867
G1 X119.822 Y77.259 E3.19776
G1 X119.908 Y76.785 E3.21686
G1 X120.077 Y76.333 E3.23595
G1 X120.324 Y75.919 E3.25505
G1 X120.642 Y75.556 E3.27415
G1 X121.019 Y75.256 E3.29324
G1 X121.443 Y75.027 E3.31234
G1 X121.902 Y74.878 E3.33143
G1 X122.341 Y74.819 E3.34901 F720.000
G1 X122.858 Y74.834 E3.36947
G1 X123.331 Y74.942 E3.38870
G1 X123.774 Y75.132 E3.40779
G1 X124.177 Y75.397 E3.42689
G1 X124.482 Y75.689 E3.44361
G1 X124.920 Y75.665 F36000.000
G1 E1.44361 F2400.00000
G92 E0
G1 X87.589 Y73.737 F36000.000
G1 E2.00000 F2400.00000
G1 X121.514 Y73.737 E3.34365 F1800.000
G1 X121.578 Y74.142 E3.35989
G1 X121.127 Y74.289 E3.37865 F1800.000
G1 X120.576 Y74.585 E3.40345
G1 X120.087 Y74.976 E3.42825
G1 X119.675 Y75.447 E3.45305
G1 X119.353 Y75.985 E3.47785
G1 X119.133 Y76.571 E3.50264
G1 X119.022 Y77.187 E3.52744
G1 X119.022 Y77.813 E3.55224
G1 X119.133 Y78.429 E3.57703
G1 X119.353 Y79.015 E3.60183
G1 X119.675 Y79.553 E3.62663
G1 X120.087 Y80.024 E3.65143
G1 X120.576 Y80.415 E3.67623
G1 X121.127 Y80.711 E3.70102
G1 X121.723 Y80.905 E3.72582
G1 X122.343 Y80.989 E3.75063
G1 X122.969 Y80.961 E3.77542
G1 X123.579 Y80.822 E3.80022
G1 X124.155 Y80.575 E3.82502
G1 X124.677 Y80.230 E3.84981
G1 X125.130 Y79.798 E3.87461
G1 X125.498 Y79.291 E3.89941
G1 X125.750 Y78.767 E3.92245
G1 X125.851 Y78.424 E3.93661
G1 X126.263 Y78.483 E3.95310
G1 X126.263 Y121.497 E5.65675
G1 X125.847 Y121.553 E5.67336
G1 X125.770 Y121.273 E5.68489
G1 X125.498 Y120.709 E5.70968
G1 X125.130 Y120.202 E5.73448
G1 X124.677 Y119.770 E5.75928
G1 X124.155 Y119.425 E5.78407
G1 X123.579 Y119.178 E5.80887
G1 X122.960 Y119.037 E5.83403
G1 X122.300 Y119.017 E5.86020
G1 X121.723 Y119.095 E5.88325
G1 X121.127 Y119.289 E5.90805
G1 X120.576 Y119.585 E5.93284
G1 X120.087 Y119.976 E5.95764
G1 X119.675 Y120.447 E5.98244
G1 X119.353 Y120.985 E6.00724
G1 X119.133 Y121.571 E6.03204
G1 X119.022 Y122.187 E6.05684
G1 X119.022 Y122.813 E6.08163
G1 X119.135 Y123.437 E6.10675
G1 X119.354 Y124.017 E6.13130
G1 X119.679 Y124.560 E6.15638
G1 X120.121 Y125.052 E6.18256
G1 X120.576 Y125.415 E6.20561
G1 X121.127 Y125.711 E6.23040
G1 X121.578 Y125.858 E6.24917
G1 X121.514 Y126.263 E6.26541
G1 X78.523 Y126.263 E7.96811
G1 X78.445 Y125.879 E7.98362
G1 X79.155 Y125.575 E8.01421
G1 X79.677 Y125.230 E8.03900
G1 X80.130 Y124.798 E8.06380
G1 X80.498 Y124.291 E8.08860
G1 X80.770 Y123.727 E8.11340
G1 X80.924 Y123.166 E8.13644
G1 X80.993 Y122.509 E8.16262
G1 X80.936 Y121.876 E8.18778
G1 X80.770 Y121.273 E8.21257
G1 X80.498 Y120.709 E8.23736
G1 X80.130 Y120.202 E8.26216
G1 X79.677 Y119.770 E8.28696
G1 X79.155 Y119.425 E8.31176
G1 X78.579 Y119.178 E8.33656
G1 X77.960 Y119.037 E8.36172
G1 X77.300 Y119.017 E8.38788
G1 X76.723 Y119.095 E8.41093
G1 X76.127 Y119.289 E8.43573
G1 X75.576 Y119.585 E8.46052
G1 X75.087 Y119.976 E8.48533
G1 X74.675 Y120.447 E8.51013
G1 X74.353 Y120.985 E8.53493
G1 X74.132 Y121.576 E8.55993
G1 X73.737 Y121.504 E8.57580
G1 X73.737 Y78.496 E10.27921
G1 X74.132 Y78.424 E10.29508
G1 X74.353 Y79.015 E10.32008
G1 X74.675 Y79.553 E10.34488
G1 X75.087 Y80.024 E10.36968
G1 X75.576 Y80.415 E10.39449
G1 X76.127 Y80.711 E10.41928
G1 X76.723 Y80.905 E10.44408
G1 X77.343 Y80.989 E10.46888
G1 X77.969 Y80.961 E10.49367
G1 X78.579 Y80.822 E10.51847
G1 X79.155 Y80.575 E10.54327
G1 X79.677 Y80.230 E10.56807
G1 X80.130 Y79.798 E10.59287
G1 X80.498 Y79.291 E10.61767
G1 X80.770 Y78.727 E10.64246
G1 X80.924 Y78.166 E10.66550
G1 X80.993 Y77.509 E10.69168
G1 X80.936 Y76.876 E10.71684
G1 X80.770 Y76.273 E10.74163
G1 X80.498 Y75.709 E10.76643
G1 X80.130 Y75.202 E10.79123
G1 X79.677 Y74.770 E10.81603
G1 X79.155 Y74.425 E10.84082
G1 X78.445 Y74.121 E10.87141
G1 X78.523 Y73.737 E10.88692
G1 X87.529 Y73.737 E11.24359
G1 X80.018 Y76.555 F36000.000
G1 X80.146 Y77.020 E11.26269 F720.000
G1 X80.190 Y77.503 E11.28191
G1 X80.136 Y78.017 E11.30239
G1 X80.018 Y78.445 E11.31996
G1 X79.809 Y78.879 E11.33905
G1 X79.525 Y79.269 E11.35815
G1 X79.177 Y79.603 E11.37724
G1 X78.774 Y79.868 E11.39634
G1 X78.331 Y80.058 E11.41543
G1 X77.861 Y80.165 E11.43453
G1 X77.379 Y80.187 E11.45362
G1 X76.902 Y80.122 E11.47272
G1 X76.443 Y79.973 E11.49181
G1 X76.019 Y79.744 E11.51091
G1 X75.642 Y79.444 E11.53000
G1 X75.324 Y79.081 E11.54910
G1 X75.077 Y78.667 E11.56820
G1 X74.908 Y78.215 E11.58729
G1 X74.822 Y77.741 E11.60639
G1 X74.822 Y77.259 E11.62548
G1 X74.908 Y76.785 E11.64458
G1 X75.077 Y76.333 E11.66367
G1 X75.324 Y75.919 E11.68276
G1 X75.642 Y75.556 E11.70186
G1 X76.019 Y75.256 E11.72096
G1 X76.443 Y75.027 E11.74005
G1 X76.902 Y74.878 E11.75915
G1 X77.341 Y74.819 E11.77672 F720.000
G1 X77.858 Y74.834 E11.79719
G1 X78.331 Y74.942 E11.81641
G1 X78.774 Y75.132 E11.83551
G1 X79.177 Y75.397 E11.85460
G1 X79.525 Y75.731 E11.87370
G1 X79.809 Y76.121 E11.89280
G1 X79.992 Y76.501 E11.90951
G1 X80.410 Y76.632 F36000.000
G1 E9.90951 F2400.00000
G92 E0
G1 X73.737 Y74.475 F36000.000
G1 E2.00000 F2400.00000
G1 X73.737 Y73.737 E2.02920 F720.000
G1 X76.514 Y73.737 E2.13916
G1 X76.578 Y74.142 E2.15540
G1 X76.127 Y74.289 E2.17417 F720.000
G1 X75.576 Y74.585 E2.19896
G1 X75.087 Y74.976 E2.22376
G1 X74.675 Y75.447 E2.24856
G1 X74.353 Y75.985 E2.27336
G1 X74.132 Y76.576 E2.29836
G1 X73.737 Y76.504 E2.31423
G1 X73.737 Y74.535 E2.39225
G1 X77.341 Y119.819 F36000.000
G1 X77.858 Y119.834 E2.41271 F720.000
G1 X78.331 Y119.942 E2.43194
G1 X78.774 Y120.132 E2.45103
G1 X79.177 Y120.397 E2.47013
G1 X79.525 Y120.731 E2.48922
G1 X79.809 Y121.121 E2.50832
G1 X80.018 Y121.555 E2.52741
G1 X80.146 Y122.020 E2.54651
G1 X80.190 Y122.503 E2.56573
G1 X80.136 Y123.017 E2.58620
G1 X80.018 Y123.445 E2.60377
G1 X79.809 Y123.879 E2.62287
G1 X79.525 Y124.269 E2.64196
G1 X79.177 Y124.603 E2.66106
G1 X78.774 Y124.868 E2.68015
G1 X78.331 Y125.058 E2.69925
G1 X77.861 Y125.165 E2.71835
G1 X77.379 Y125.187 E2.73744
G1 X76.902 Y125.122 E2.75654
G1 X76.443 Y124.973 E2.77563
G1 X76.019 Y124.744 E2.79472
G1 X75.642 Y124.444 E2.81382
G1 X75.324 Y124.081 E2.83292
G1 X75.077 Y123.667 E2.85199
G1 X74.909 Y123.222 E2.87084
G1 X74.822 Y122.741 E2.89021
G1 X74.822 Y122.259 E2.90930
G1 X74.908 Y121.785 E2.92840
G1 X75.077 Y121.333 E2.94749
G1 X75.324 Y120.919 E2.96659
G1 X75.642 Y120.556 E2.98568
G1 X76.019 Y120.256 E3.00478
G1 X76.443 Y120.027 E3.02387
G1 X76.902 Y119.878 E3.04297
G1 X77.282 Y119.827 E3.05817 F720.000
G1 X77.533 Y119.467 F36000.000
G1 E1.05817 F2400.00000
G92 E0
G1 X74.989 Y126.263 F36000.000
G1 E2.00000 F2400.00000
G1 X73.737 Y126.263 E2.04956 F720.000
G1 X73.737 Y123.499 E2.15904
G1 X74.131 Y123.427 E2.17488
G1 X74.354 Y124.017 E2.19987
G1 X74.675 Y124.553 E2.22460 F720.000
G1 X75.087 Y125.024 E2.24940
G1 X75.576 Y125.415 E2.27420
G1 X76.127 Y125.711 E2.29900
G1 X76.578 Y125.858 E2.31777
G1 X76.514 Y126.263 E2.33400
G1 X75.049 Y126.263 E2.39203
G1 X75.049 Y127.062 F36000.000
G1 X72.938 Y127.062 E2.47565 F1800.000
G1 X72.938 Y72.938 E4.61934
G1 X127.062 Y72.938 E6.76304
G1 X127.062 Y127.062 E8.90674
G1 X75.109 Y127.062 E10.96444 F1800.000
G1 X74.849 Y126.716 F36000.000
G1 X75.486 Y125.843 F36000.000
G1 X75.315 Y125.799 E10.97140 F540.000
G1 X74.497 Y125.503 E11.00589
G1 X74.258 Y124.868 E11.03274
G1 X74.157 Y124.503 E11.04776
G1 X74.601 Y119.892 F36000.000
G1 X74.228 Y119.519 E11.06870 F1800.000
G1 X74.228 Y118.387 E11.11358
G1 X75.193 Y119.352 E11.16769
G1 X75.897 Y118.924 E11.20035
G1 X74.228 Y117.254 E11.29395
G1 X74.228 Y116.122 E11.33883
G1 X76.729 Y118.624 E11.47906
G1 X77.773 Y118.536 E11.52059
G1 X74.228 Y114.990 E11.71935
G1 X74.228 Y113.858 E11.76423
G1 X79.188 Y118.818 E12.04227
G1 X80.481 Y125.772 F36000.000
G1 X80.108 Y125.400 E12.06317 F1800.000
G1 X80.647 Y124.806 E12.09494
G1 X81.613 Y125.772 E12.14912
G1 X82.746 Y125.772 E12.19400
G1 X81.072 Y124.099 E12.28782
G1 X81.366 Y123.261 E12.32302
G1 X83.878 Y125.772 E12.46379
G1 X85.010 Y125.772 E12.50867
G1 X81.477 Y122.240 E12.70670
G1 X81.202 Y120.833 E12.76353
G1 X86.142 Y125.772 E13.04044
G1 X87.274 Y125.772 E13.08532
G1 X74.228 Y112.726 E13.81666
G1 X74.228 Y111.594 E13.86154
G1 X88.406 Y125.772 E14.65635
G1 X89.538 Y125.772 E14.70122
G1 X74.228 Y110.462 E15.55950
G1 X74.228 Y109.330 E15.60437
G1 X90.670 Y125.772 E16.52611
G1 X91.803 Y125.772 E16.57099
G1 X74.228 Y108.197 E17.55619
G1 X74.228 Y107.065 E17.60106
G1 X92.935 Y125.772 E18.64973
G1 X94.067 Y125.772 E18.69460
G1 X74.228 Y105.933 E19.80673
G1 X74.228 Y104.801 E19.85161
G1 X95.199 Y125.772 E21.02720
G1 X96.331 Y125.772 E21.07208
G1 X74.228 Y103.669 E22.31113
G1 X74.228 Y102.537 E22.35601
G1 X97.463 Y125.772 E23.65853
G1 X98.595 Y125.772 E23.70340
G1 X74.228 Y101.405 E25.06939
G1 X74.228 Y100.273 E25.11426
G1 X99.727 Y125.772 E26.54371
G1 X100.860 Y125.772 E26.58859
G1 X74.228 Y99.140 E28.08150
G1 X74.228 Y98.008 E28.12637
G1 X101.992 Y125.772 E29.68275
G1 X103.124 Y125.772 E29.72762
G1 X74.228 Y96.876 E31.34746
G1 X74.228 Y95.744 E31.39234
G1 X104.256 Y125.772 E33.07564
G1 X105.388 Y125.772 E33.12052
G1 X74.228 Y94.612 E34.86728
G1 X74.228 Y93.480 E34.91216
G1 X106.520 Y125.772 E36.72239
G1 X107.652 Y125.772 E36.76727
G1 X74.228 Y92.348 E38.64096
G1 X74.228 Y91.216 E38.68584
G1 X108.784 Y125.772 E40.62299
G1 X109.917 Y125.772 E40.66787
G1 X74.228 Y90.083 E42.66849
G1 X74.228 Y88.951 E42.71337
G1 X111.049 Y125.772 E44.77745
G1 X112.181 Y125.772 E44.82233
G1 X74.228 Y87.819 E46.94988
G1 X74.228 Y86.687 E46.99475
G1 X113.313 Y125.772 E49.18577
G1 X114.445 Y125.772 E49.23064
G1 X74.228 Y85.555 E51.48512
G1 X74.228 Y84.423 E51.53000
G1 X115.577 Y125.772 E53.84794
G1 X116.709 Y125.772 E53.89281
G1 X74.228 Y83.291 E56.27422
G1 X74.228 Y82.159 E56.31909
G1 X117.841 Y125.772 E58.76396
G1 X118.974 Y125.772 E58.80884
G1 X74.228 Y81.026 E61.31717
G1 X75.236 Y80.903 E61.35744
G1 X119.105 Y124.772 E63.81661
G1 X118.537 Y123.071 F36000.000
G1 X76.916 Y81.450 E66.14978 F1800.000
G1 X78.016 Y81.418 E66.19342
G1 X118.587 Y121.990 E68.46773
G1 X118.836 Y121.107 E68.50410
G1 X78.893 Y81.163 E70.74323
G1 X79.632 Y80.770 E70.77641
G1 X119.226 Y120.365 E72.99598
G1 X119.734 Y119.740 E73.02788
G1 X80.254 Y80.260 E75.24101
G1 X80.767 Y79.641 E75.27288
G1 X120.351 Y119.225 E77.49189
G1 X121.090 Y118.832 E77.52506
G1 X81.164 Y78.906 E79.76317
G1 X81.415 Y78.025 E79.79949
G1 X121.978 Y118.587 E82.07331
G1 X123.067 Y118.545 E82.11653
G1 X81.449 Y76.926 E84.44954
G1 X80.937 Y75.283 E84.51778
G1 X124.718 Y119.063 E86.97198
G1 X125.772 Y118.986 E87.01390
G1 X81.014 Y74.228 E89.52291
G1 X82.146 Y74.228 E89.56779
G1 X125.772 Y117.854 E92.01334
G1 X125.772 Y116.721 E92.05821
G1 X83.279 Y74.228 E94.44029
G1 X84.411 Y74.228 E94.48517
G1 X125.772 Y115.589 E96.80379
G1 X125.772 Y114.457 E96.84867
G1 X85.543 Y74.228 E99.10382
G1 X86.675 Y74.228 E99.14870
